img/svg/icon-font/grid.svg

<svg width="22" height="22" viewBox="0 0 22 22" fill="none" xmlns="http://www.w3.org/2000/svg">
<path d="M21.1406 12.2891C21.6153 12.2891 22 11.9043 22 11.4297V5.58594C22 3.6905 20.4579 2.14844 18.5625 2.14844H3.4375C1.54206 2.14844 0 3.6905 0 5.58594V16.4141C0 18.3095 1.54206 19.8516 3.4375 19.8516H18.5625C20.4579 19.8516 22 18.3095 22 16.4141V16.0703C22 15.5957 21.6153 15.2109 21.1406 15.2109C20.666 15.2109 20.2812 15.5957 20.2812 16.0703V16.4141C20.2812 17.3618 19.5102 18.1328 18.5625 18.1328H15.3398V14.6094H17.2734C17.7481 14.6094 18.1328 14.2246 18.1328 13.75C18.1328 13.2754 17.7481 12.8906 17.2734 12.8906H15.3398V9.10938H20.2812V11.4297C20.2812 11.9043 20.666 12.2891 21.1406 12.2891ZM6.70312 18.1328H3.4375C2.48978 18.1328 1.71875 17.3618 1.71875 16.4141V14.6094H6.70312V18.1328ZM6.70312 12.8906H1.71875V9.10938H6.70312V12.8906ZM6.70312 7.39062H1.71875V5.58594C1.71875 4.63822 2.48978 3.86719 3.4375 3.86719H6.70312V7.39062ZM13.6211 18.1328H8.42188V14.6094H13.6211V18.1328ZM13.6211 12.8906H8.42188V9.10938H13.6211V12.8906ZM13.6211 7.39062H8.42188V3.86719H13.6211V7.39062ZM15.3398 7.39062V3.86719H18.5625C19.5102 3.86719 20.2812 4.63822 20.2812 5.58594V7.39062H15.3398Z" fill="#4C51CB"/>
</svg>

<svg width="22" height="22" fill="none" xmlns="http://www.w3.org/2000/svg"><path d="M21.14 12.29a.86.86 0 00.86-.86V5.586a3.441 3.441 0 00-3.438-3.438H3.438A3.441 3.441 0 000 5.586v10.828a3.441 3.441 0 003.438 3.438h15.124A3.441 3.441 0 0022 16.414v-.344a.86.86 0 10-1.719 0v.344a1.72 1.72 0 01-1.718 1.719H15.34v-3.524h1.933a.86.86 0 100-1.718H15.34V9.109h4.941v2.32c0 .475.385.86.86.86zM6.704 18.132H3.437a1.72 1.72 0 01-1.718-1.719V14.61h4.984v3.524zm0-5.242H1.72V9.109h4.984v3.782zm0-5.5H1.72V5.586a1.72 1.72 0 011.718-1.719h3.266v3.524zm6.918 10.742h-5.2v-3.524h5.2v3.524zm0-5.242h-5.2V9.109h5.2v3.782zm0-5.5h-5.2V3.867h5.2v3.524zm1.719 0V3.867h3.223a1.72 1.72 0 011.718 1.719V7.39H15.34z" fill="#4C51CB"/></svg>
